!!!!SEGMENT: Snf0247-Sancta_et_immaculata_Virginitas--Regensburg_C120.krn
!!!id: Snf0247
!!!AGN: Motet
!!!SCT: Edwards, Gasch, Tröster (2022)
!!!voices: 4
!!!COM: Ludwig Senfl
!!!OTL: Sancta et immaculata virginitas I (Regensburg C120)
**kern	**text	**kern	**text	**kern	**text	**kern	**text
*part4	*part4	*part3	*part3	*part2	*part2	*part1	*part1
*staff4	*staff4	*staff3	*staff3	*staff2	*staff2	*staff1	*staff1
*I"Bassus	*	*I"Tenor	*	*I"Altus	*	*I"Superius	*
*I'B	*	*I'T	*	*I'A	*	*I'S	*
*clefF4	*	*clefGv2	*	*clefGv2	*	*clefG2	*
*k[b-]	*	*k[b-]	*	*k[b-]	*	*k[b-]	*
*F:	*	*F:	*	*F:	*	*F:	*
*M2/1	*	*M2/1	*	*M2/1	*	*M2/1	*
*met(C|)	*	*met(C|)	*	*met(C|)	*	*met(C|)	*
!!section: Prima pars: Sancta et immaculata virginitas
!!!OMD: Prima pars: Sancta et immaculata virginitas
=1	=1	=1	=1	=1	=1	=1	=1
0r	.	0r	.	0r	.	0f	San-
=2	=2	=2	=2	=2	=2	=2	=2
0r	.	0r	.	0r	.	1e	-cta
.	.	.	.	.	.	1f	.
=3	=3	=3	=3	=3	=3	=3	=3
0r	.	0r	.	0B-y	San-	0d	.
=4	=4	=4	=4	=4	=4	=4	=4
0r	.	0r	.	1A	-cta	1r	.
.	.	.	.	1B-y	.	[1d	et
=5	=5	=5	=5	=5	=5	=5	=5
0r	.	0r	.	0G	.	1d]	.
.	.	.	.	.	.	1d	im-
=6	=6	=6	=6	=6	=6	=6	=6
0r	.	0r	.	1r	.	1f	-ma-
.	.	.	.	1G	et	1g	-cu-
=7	=7	=7	=7	=7	=7	=7	=7
0r	.	0r	.	1G	im-	1g	-la-
.	.	.	.	1B-y	-ma-	1f	.
=8	=8	=8	=8	=8	=8	=8	=8
0r	.	0r	.	1B-y	-cu-	0g	-ta
.	.	.	.	1c	.	.	.
=9	=9	=9	=9	=9	=9	=9	=9
0r	.	0r	.	1c	-la-	1r	.
.	.	.	.	1B-y	.	1g	vir-
=10	=10	=10	=10	=10	=10	=10	=10
0r	.	0F	San-	0c	-ta	1a	.
.	.	.	.	.	.	1f	-gi-
=11	=11	=11	=11	=11	=11	=11	=11
0r	.	1E	-cta	1r	.	1g	-ni-
.	.	1F	.	1c	vir-	1f	-tas,
=12	=12	=12	=12	=12	=12	=12	=12
0BB-y	San-	0D	.	1d	.	2r	.
.	.	.	.	.	.	1f	qui-
.	.	.	.	1B-y	-gi-	.	.
.	.	.	.	.	.	4e	.
.	.	.	.	.	.	4d	.
=13	=13	=13	=13	=13	=13	=13	=13
1AA	-cta	0r	.	1c	-ni-	1e	.
1BB-y	.	.	.	[1B-y	-tas,	[1d	-bus,
=14	=14	=14	=14	=14	=14	=14	=14
0GG	.	1r	.	1B-]	.	1d]	.
.	.	1D	et	2r	.	2r	.
.	.	.	.	2B-y	qui-	2g	qui-
=15	=15	=15	=15	=15	=15	=15	=15
0r	.	1D	im-	2A	.	2a	.
.	.	.	.	1d	.	1b-y	.
.	.	1F	-ma-	.	.	.	.
.	.	.	.	4c	.	4a	.
.	.	.	.	4B-y	.	4g	.
=16	=16	=16	=16	=16	=16	=16	=16
1r	.	1F	-cu-	1c	.	1a	.
1GG	et	1G	.	[1B-y	-bus	2d	.
.	.	.	.	.	.	[2g	.
=17	=17	=17	=17	=17	=17	=17	=17
1GG	im-	1G	-la-	0B-]	.	2g]	.
.	.	.	.	.	.	4f	.
.	.	.	.	.	.	4e	.
1BB-y	-ma-	1F	.	.	.	1d	-bus
=18	=18	=18	=18	=18	=18	=18	=18
1BB-y	-cu-	0G	-ta	2r	.	2r	.
.	.	.	.	2B-y	te	2d	te
1C	.	.	.	2G	lau-	2e	lau-
.	.	.	.	[2c	-di-	2c	-di-
=19	=19	=19	=19	=19	=19	=19	=19
1C	-la-	0r	.	4c]	.	1cc	-bus,
.	.	.	.	4d	.	.	.
.	.	.	.	2e	.	.	.
1BB-y	.	.	.	1f	-bus,	1dd	.
=20	=20	=20	=20	=20	=20	=20	=20
0C	-ta	1G	vir-	1.e	lau-	2g	te
.	.	.	.	.	.	2.cc	lau-
.	.	1A	.	.	.	.	.
.	.	.	.	.	.	4b-y	.
.	.	.	.	2c	-di-	4a	.
.	.	.	.	.	.	4g	.
=21	=21	=21	=21	=21	=21	=21	=21
1r	.	1F	-gi-	1c	-bus,	2a	.
.	.	.	.	.	.	1f	-di-
1C	vir-	1G	-ni-	2r	.	.	.
.	.	.	.	2c	te	2e	.
=22	=22	=22	=22	=22	=22	=22	=22
1D	.	0F	-tas,	2A	lau-	1f	-bus
.	.	.	.	2.d	-di-	.	.
1BB-y	-gi-	.	.	.	.	2r	.
.	.	.	.	4c	.	.	.
.	.	.	.	[2B-y	.	2f	ef-
=23	=23	=23	=23	=23	=23	=23	=23
1C	-ni-	0r	.	2B-]	.	2e	-fe-
.	.	.	.	2A	.	2c	-ram,
1BB-y	-tas,	.	.	2B-y	-bus	2.d	ef-
.	.	.	.	[2f	ef-	.	.
.	.	.	.	.	.	4e	.
=24	=24	=24	=24	=24	=24	=24	=24
1BB-y	qui-	0r	.	2f]	.	2f	.
.	.	.	.	4e	.	1g	-fe-
.	.	.	.	4d	.	.	.
1C	-bus	.	.	1e	.	.	.
.	.	.	.	.	.	[2a	.
=25	=25	=25	=25	=25	=25	=25	=25
1D	.	1r	.	3%2d	-fe-	4a]	.
.	.	.	.	.	.	4g	.
.	.	.	.	.	.	4f	.
.	.	.	.	3%2A	.	.	.
.	.	.	.	.	.	4e	.
1D	te	1F	qui-	.	.	1f	.
.	.	.	.	3%2B-y	.	.	.
=26	=26	=26	=26	=26	=26	=26	=26
1C	.	1G	-bus	2c	-ram,	2e	-ram
.	.	.	.	1g	ef-	1c	ne-
1r	.	1A	.	.	.	.	.
.	.	.	.	4f	.	[2cc	.
.	.	.	.	4e	.	.	.
=27	=27	=27	=27	=27	=27	=27	=27
1r	.	1A	te	1f	-fe-	2cc]	.
.	.	.	.	.	.	4b-y	.
.	.	.	.	.	.	4a	.
1E-X	lau-	1G	.	2g	-ram	2b-y	.
.	.	.	.	2c	ne-	2g	-sci-
=28	=28	=28	=28	=28	=28	=28	=28
1D	-di-	1B-y	lau-	2d	.	1f	-o,
.	.	.	.	2B-y	-sci-	.	.
[1C	-bus	1A	-di-	[1c	-o,	1r	.
=29	=29	=29	=29	=29	=29	=29	=29
1C]	.	0G	-bus	1c]	.	2r	.
.	.	.	.	.	.	1g	ef-
1C	ef-	.	.	2r	.	.	.
.	.	.	.	2c	ef-	4f	.
.	.	.	.	.	.	4e	.
=30	=30	=30	=30	=30	=30	=30	=30
1BB-y	.	0G	ef-	2d	.	2d	.
.	.	.	.	1f	.	2d	-fe-
1C	-fe-	.	.	.	.	1c	-ram
.	.	.	.	2e	-fe-	.	.
=31	=31	=31	=31	=31	=31	=31	=31
0D	-ram	0F	.	2f	-ram	2r	.
.	.	.	.	2.d	ne-	2.f	ne-
.	.	.	.	4e	.	4g	.
.	.	.	.	2f	.	2a	.
=32	=32	=32	=32	=32	=32	=32	=32
0r	.	0G	-fe-	2e	-sci-	2g	.
.	.	.	.	4d	.	1cc	.
.	.	.	.	4c	.	.	.
.	.	.	.	1d	-o,	.	.
.	.	.	.	.	.	2bnXi	-sci-
=33	=33	=33	=33	=33	=33	=33	=33
0r	.	0A	-ram	2r	.	1cc	-o,
.	.	.	.	2.c	ef-	.	.
.	.	.	.	.	.	2r	.
.	.	.	.	4d	.	.	.
.	.	.	.	2e	.	2cc	ef-
=34	=34	=34	=34	=34	=34	=34	=34
0BB-y	ne-	0r	.	4f	.	2dd	.
.	.	.	.	4e	.	.	.
.	.	.	.	4d	.	2.b-y	-fe-
.	.	.	.	4c	.	.	.
.	.	.	.	1d	.	.	.
.	.	.	.	.	.	4a	.
.	.	.	.	.	.	4g	.
.	.	.	.	.	.	4f	.
=35	=35	=35	=35	=35	=35	=35	=35
0C	-sci-	0r	.	2c	.	2e	.
.	.	.	.	2A	-fe-	1f	-ram
.	.	.	.	1G	-ram	.	.
.	.	.	.	.	.	2e	.
=36	=36	=36	=36	=36	=36	=36	=36
0BB-y	-o:	[0F	ne-	1.d	ne-	1.f	ne-
.	.	.	.	2B-y	-sci-	2d	-sci-
=37	=37	=37	=37	=37	=37	=37	=37
0BB-y	qui-	0F]	.	[0B-y	-o:	[0d	-o:
=38	=38	=38	=38	=38	=38	=38	=38
0GG	.	0G	-sci-	0B-]	.	0d]	.
=39	=39	=39	=39	=39	=39	=39	=39
[0BB-y	-a	0F	-o:	2r	.	1r	.
.	.	.	.	2.D	qui-	.	.
.	.	.	.	.	.	2r	.
.	.	.	.	4E	.	.	.
.	.	.	.	[2F	.	[2d	qui-
=40	=40	=40	=40	=40	=40	=40	=40
0BB-]	.	1F	qui-	2F]	.	4d]	.
.	.	.	.	.	.	4e	.
.	.	.	.	1D	.	1f	.
.	.	1D	.	.	.	.	.
.	.	.	.	4C	.	4e	.
.	.	.	.	4BB-y	.	4d	.
=41	=41	=41	=41	=41	=41	=41	=41
0r	.	1F	-a	1AA	-a	1c	-a
.	.	1G	quem	1BB-y	quem	4B-y	quem
.	.	.	.	.	.	4c	.
.	.	.	.	.	.	4d	.
.	.	.	.	.	.	4e	.
=42	=42	=42	=42	=42	=42	=42	=42
0r	.	0A	cae-	1C	.	4f	.
.	.	.	.	.	.	4e	.
.	.	.	.	.	.	1g	cae-
.	.	.	.	2r	.	.	.
.	.	.	.	[2C	cae-	2f#i	.
=43	=43	=43	=43	=43	=43	=43	=43
1C	quem	1G	-li	4C]	.	1g	-li,
.	.	.	.	4D	.	.	.
.	.	.	.	2E	.	.	.
[1D	cae-	1F	ca-	4F	.	1r	.
.	.	.	.	4E	.	.	.
.	.	.	.	4D	.	.	.
.	.	.	.	4C	.	.	.
=44	=44	=44	=44	=44	=44	=44	=44
1D]	.	1F	-pe-	1BB-y	.	2r	.
.	.	.	.	.	.	2d	qui-
1C	-li	1G	.	1C	.	2e	.
.	.	.	.	.	.	[2g	.
=45	=45	=45	=45	=45	=45	=45	=45
1BB-y	ca-	[0G	-re	1D	-li,	2g]	.
.	.	.	.	.	.	4f	.
.	.	.	.	.	.	4e	.
1BB-y	-pe-	.	.	2r	.	2d	.
.	.	.	.	2D	qui-	2d	-a
=46	=46	=46	=46	=46	=46	=46	=46
1C	.	0G]	.	2E	-a	1c	quem
.	.	.	.	2.G	quem	.	.
1C	-re	.	.	.	.	2r	.
.	.	.	.	4F	.	.	.
.	.	.	.	4E	.	[2cc	cae-
.	.	.	.	4D	.	.	.
=47	=47	=47	=47	=47	=47	=47	=47
1C	non	0r	.	1C	.	4cc]	.
.	.	.	.	.	.	4b-y	.
.	.	.	.	.	.	4a	.
.	.	.	.	.	.	4g	.
1D	.	.	.	2r	.	1f	-li,
.	.	.	.	[2F	cae-	.	.
=48	=48	=48	=48	=48	=48	=48	=48
1BB-y	po-	0r	.	4F]	.	2r	.
.	.	.	.	4E	.	.	.
.	.	.	.	4D	.	2.f	cae-
.	.	.	.	4C	.	.	.
1BB-y	-te-	.	.	2.BB-y	.	.	.
.	.	.	.	.	.	4e	.
.	.	.	.	.	.	4d	.
.	.	.	.	4C	.	4c	.
=49	=49	=49	=49	=49	=49	=49	=49
1GG	-rant,	1r	.	0D	.	1B-y	-li
1BB-y	.	1G	non	.	.	2r	.
.	.	.	.	.	.	2b-y	ca-
=50	=50	=50	=50	=50	=50	=50	=50
0FF	.	1A	.	1C	-li	2a	.
.	.	.	.	.	.	2.cc	-pe-
.	.	1F	po-	2r	.	.	.
.	.	.	.	.	.	4b-y	.
.	.	.	.	[2C	ca-	4a	.
.	.	.	.	.	.	4g	.
=51	=51	=51	=51	=51	=51	=51	=51
0r	.	1F	-te-	4C]	.	1f	-re,
.	.	.	.	4BB-y	.	.	.
.	.	.	.	4AA	.	.	.
.	.	.	.	4GG	.	.	.
.	.	1D	-rant,	2.FF	.	2r	.
.	.	.	.	.	.	[2a	ca-
.	.	.	.	4GG	.	.	.
=52	=52	=52	=52	=52	=52	=52	=52
0r	.	1F	.	2.AA	.	2a]	.
.	.	.	.	.	.	4g	.
.	.	.	.	4BB-y	.	4f	.
.	.	1C	.	4C	.	2e	-pe-
.	.	.	.	4D	.	.	.
.	.	.	.	4E	.	[2c	-re
.	.	.	.	4F	.	.	.
=53	=53	=53	=53	=53	=53	=53	=53
0r	.	1C	tu-	2G	.	2c]	.
.	.	.	.	2E	.	2cc	non
.	.	1D	.	2F	.	2a	po-
.	.	.	.	2D	-pe-	[2b-y	-te-
=54	=54	=54	=54	=54	=54	=54	=54
1FF	tu-	1F	-o	1C	-re,	2b-]	.
.	.	.	.	.	.	2a	.
1GG	.	1D	.	2.BB-y	ca-	2.b-y	.
.	.	.	.	4C	.	4a	.
=55	=55	=55	=55	=55	=55	=55	=55
1BB-y	-o	0r	.	4D	.	2g	.
.	.	.	.	4E	.	.	.
.	.	.	.	2F	.	2f	.
1GG	.	.	.	2.G	-pe-	2e	.
.	.	.	.	.	.	[2d	.
.	.	.	.	4F	.	.	.
=56	=56	=56	=56	=56	=56	=56	=56
1AA	gre-	0r	.	1E	-re	2d]	.
.	.	.	.	.	.	2c	.
1BB-y	-mi-	.	.	2r	.	2d	.
.	.	.	.	2D	non	2f	.
=57	=57	=57	=57	=57	=57	=57	=57
1C	.	1r	.	2C	po-	2.e	.
.	.	.	.	1BB-y	.	.	.
.	.	.	.	.	.	4d	.
1C	-o	1E	gre-	.	.	1e	.
.	.	.	.	2AA	.	.	.
=58	=58	=58	=58	=58	=58	=58	=58
1BB-y	.	1F	-mi-	2BB-y	.	1d	-rant,
.	.	.	.	1F	.	.	.
1r	.	1G	.	.	.	1r	.
.	.	.	.	4E	.	.	.
.	.	.	.	4D	.	.	.
=59	=59	=59	=59	=59	=59	=59	=59
0r	.	1G	-o	1E	-te-	2r	.
.	.	.	.	.	.	2g	tu-
.	.	1F	.	1F	-rant,	1a	.
=60	=60	=60	=60	=60	=60	=60	=60
0C	con-	1G	con-	2r	.	1g	.
.	.	.	.	2.E	tu-	.	.
.	.	1G	-tu-	.	.	1c	-o
.	.	.	.	4F	.	.	.
.	.	.	.	2G	.	.	.
=61	=61	=61	=61	=61	=61	=61	=61
0C	-tu-	1A	.	2C	-o	1r	.
.	.	.	.	1F	gre-	.	.
.	.	1G	.	.	.	2r	.
.	.	.	.	2E	-mi-	2cc	gre-
=62	=62	=62	=62	=62	=62	=62	=62
0D	.	1F	-li-	2F	.	2a	-mi-
.	.	.	.	1D	.	2.b-y	.
.	.	1F	-sti.	.	.	.	.
.	.	.	.	.	.	4a	.
.	.	.	.	4C	.	[2a	.
.	.	.	.	4BB-y	.	.	.
=63	=63	=63	=63	=63	=63	=63	=63
0C	.	0r	.	2AA	.	2a]	.
.	.	.	.	1BB-y	.	4g	.
.	.	.	.	.	.	4f	.
.	.	.	.	.	.	1e	.
.	.	.	.	2AA	-o	.	.
=64	=64	=64	=64	=64	=64	=64	=64
0BB-y	-li-	[0Fl	-sti.	2r	.	1d	-o
.	.	.	.	2.BB-y	con-	.	.
.	.	.	.	.	.	2r	.
.	.	.	.	4C	.	.	.
.	.	.	.	4D	.	[2B-y	con-
.	.	.	.	4E	.	.	.
=65	=65	=65	=65	=65	=65	=65	=65
0BB-y	-sti.	0F_	.	2F	.	4B-]	.
.	.	.	.	.	.	4c	.
.	.	.	.	4BB-y	.	4d	.
.	.	.	.	4C	.	4e	.
.	.	.	.	4D	.	4f	.
.	.	.	.	4C	.	4e	.
.	.	.	.	4D	.	4f	.
.	.	.	.	4E	.	4g	.
=66	=66	=66	=66	=66	=66	=66	=66
0r	.	0F_	.	2F	.	2a	.
.	.	.	.	4E	-tu-	1b-y	-tu-
.	.	.	.	4D	.	.	.
.	.	.	.	1C	-li-	.	.
.	.	.	.	.	.	2a	-li-
=67	=67	=67	=67	=67	=67	=67	=67
00BB-yl	-sti.	00F]	.	00BB-yl	-sti.	00b-yl	-sti.
==	==	==	==	==	==	==	==
*-	*-	*-	*-	*-	*-	*-	*-
!!!system-decoration: [*]
!!!RDF**kern: i = editorial accidental
!!!RDF**kern: l = terminal long
!!!!PTL: <i> New Senfl Edition: Motets for Four Voices (N-V) </i>
!!!PPR: Hollitzer Verlag
!!!PC#: Denkmäler der Tonkunst in Österreich 163.2
!!!PDT: 2022
!!!PED: Scott Lee Edwards, Stefan Gasch, and Sonja Tröster
!!!YEC: Copyright 2022 Denkmäler der Tonkunst in Österreich
!!!YEM: CC-BY-NC 4.0 (https://creativecommons.org/licenses/by-nc/4.0/legalcode)
!!!EED: Benjamin Ory
!!!EEV: 2024/2/24
!!!verovio: header true
!!!header-left: @{PTL}\n@{PED}, eds.\n@{PC#} (@{PDT})&nbsp;\n
!!!header-right:
!!!header-center: